svgs/sharp-light/chess.svg

<svg xmlns="http://www.w3.org/2000/svg" viewBox="0 0 512 512"><!--! Font Awesome Pro 6.6.0 by @fontawesome - https://fontawesome.com License - https://fontawesome.com/license (Commercial License) Copyright 2024 Fonticons, Inc. --><path d="M144 0l0 16 0 16 16 0 16 0 0 32-16 0-16 0 0 32 48 0 32 0 0 32 0 24-32.7 72 8.7 0 16 0 0 32-16 0-13.8 0 13.1 96L167 352l-13.1-96-51.8 0L89 352l-32.3 0 13.1-96L56 256l-16 0 0-32 16 0 8.7 0L32 152l0-24 0-32 32 0 48 0 0-32L96 64 80 64l0-32 16 0 16 0 0-16 0-16 32 0zM99.9 224l56.2 0L192 145.1l0-17.1-48 0-32 0-48 0 0 17.1L99.9 224zM32 480l192 0 0-16.7L191.2 416 64.8 416 32 463.3 32 480zM0 480l0-26.7L48 384l160 0 48 69.3 0 26.7 0 32-32 0L32 512 0 512l0-32zm350.1-64L320 470.2l0 9.8 160 0 0-9.8L449.9 416l-99.8 0zm118.6-32l2.3 4.1 40 72 1 1.8 0 2.1 0 16 0 24 0 8-8 0-24 0-160 0-24 0-8 0 0-8 0-24 0-16 0-2.1 1-1.8 40-72 2.3-4.1 4.7 0 128 0 4.7 0zM304 160l64 0 64 0 64 0 16 0 0 16 0 80 0 5.8-3.7 4.5L472 309.8l0 26.2 0 16-32 0 0-16 0-32 0-5.8 3.7-4.5L480 250.2l0-58.2-32 0 0 16 0 16-32 0 0-16 0-16-32 0 0 16 0 16-32 0 0-16 0-16-32 0 0 58.2 36.3 43.6 3.7 4.5 0 5.8 0 32 0 16-32 0 0-16 0-26.2-36.3-43.5-3.7-4.5 0-5.8 0-80 0-16 16 0z"/></svg>

<svg xmlns="http://www.w3.org/2000/svg" viewBox="0 0 512 512"><!--! Font Awesome Pro 6.4.2 by @fontawesome - https://fontawesome.com License - https://fontawesome.com/license (Commercial License) Copyright 2023 Fonticons, Inc. --><path d="M144 0V16 32h16 16V64H160 144V96h48 32v32 24l-32.7 72H200h16v32H200 186.2l13.1 96H167l-13.1-96H102.1L89 352H56.7l13.1-96H56 40V224H56h8.7L32 152V128 96H64h48V64H96 80V32H96h16V16 0h32zM99.9 224h56.2L192 145.1V128H144 112 64v17.1L99.9 224zM32 480H224V463.3L191.2 416H64.8L32 463.3V480zM0 480V453.3L48 384H208l48 69.3V480v32H224 32 0V480zm350.1-64L320 470.2V480H480v-9.8L449.9 416H350.1zm118.6-32l2.3 4.1 40 72 1 1.8V464v16 24 8h-8H480 320 296h-8v-8V480 464v-2.1l1-1.8 40-72 2.3-4.1H336 464h4.7zM304 160h64 64 64 16v16 80 5.8l-3.7 4.5L472 309.8V336v16H440V336 304v-5.8l3.7-4.5L480 250.2V192H448v16 16H416V208 192H384v16 16H352V208 192H320v58.2l36.3 43.6 3.7 4.5V304v32 16H328V336 309.8l-36.3-43.5-3.7-4.5V256 176 160h16z"/></svg>
